images/menubar.svg

<svg width="551" viewBox="0 0 551 551" height="551" fill="none" xmlns="http://www.w3.org/2000/svg"><path d="M270.758 86.232 508.75 200.727v163.414L271.489 465.078 42 364.464v-163.95L270.758 86.232z" fill="url(#a)" stroke="url(#b)" stroke-width="50"/><path d="M270.758 86 508.75 200.494v163.414L271.489 464.845 42 364.232v-163.95L270.758 86z" stroke="#fff" stroke-width="16" stroke-linecap="round" stroke-linejoin="round"/><path d="M129.73 272c-.741 0-1.347-.202-1.818-.606-.472-.471-.707-1.077-.707-1.818v-65.751c0-.741.235-1.347.707-1.818.471-.471 1.077-.707 1.818-.707h7.979c1.414 0 2.424.64 3.03 1.919l19.493 36.36 19.695-36.36c.673-1.279 1.683-1.919 3.03-1.919h7.878c.74 0 1.346.236 1.818.707.471.471.707 1.077.707 1.818v65.751c0 .741-.236 1.347-.707 1.818-.472.404-1.078.606-1.818.606h-8.484a2.337 2.337 0 0 1-1.717-.707 2.335 2.335 0 0 1-.707-1.717v-43.733l-14.14 26.967c-.876 1.481-2.02 2.222-3.434 2.222h-4.141c-1.414 0-2.559-.741-3.434-2.222l-14.14-26.967v43.733c0 .673-.236 1.246-.707 1.717-.404.471-.977.707-1.717.707h-8.484zm89.844 0a2.339 2.339 0 0 1-1.717-.707 2.339 2.339 0 0 1-.707-1.717v-65.751c0-.741.202-1.347.606-1.818.471-.471 1.077-.707 1.818-.707h44.44c.741 0 1.347.236 1.818.707.471.471.707 1.077.707 1.818v6.666c0 .741-.236 1.347-.707 1.818-.471.404-1.077.606-1.818.606h-33.229v17.877h31.007c.741 0 1.347.236 1.818.707.471.404.707.976.707 1.717v6.262c0 .741-.236 1.347-.707 1.818-.471.404-1.077.606-1.818.606h-31.007v18.483h34.037c.741 0 1.347.236 1.818.707.471.471.707 1.077.707 1.818v6.666c0 .741-.236 1.347-.707 1.818-.471.404-1.077.606-1.818.606h-45.248zm70.909 0a2.339 2.339 0 0 1-1.717-.707 2.339 2.339 0 0 1-.707-1.717v-65.751c0-.741.202-1.347.606-1.818.471-.471 1.077-.707 1.818-.707h7.777c.808 0 1.414.168 1.818.505.404.269.774.64 1.111 1.111l29.088 45.248v-44.339c0-.741.202-1.347.606-1.818.471-.471 1.077-.707 1.818-.707h8.484c.741 0 1.347.236 1.818.707.471.471.707 1.077.707 1.818v65.65c0 .741-.236 1.347-.707 1.818a2.339 2.339 0 0 1-1.717.707h-7.878c-1.145 0-2.121-.539-2.929-1.616l-28.987-44.238v43.43c0 .741-.236 1.347-.707 1.818-.471.404-1.077.606-1.818.606h-8.484zm105.245 1.01c-9.09 0-16.16-2.323-21.21-6.969-5.05-4.646-7.575-11.682-7.575-21.109v-41.107c0-.741.202-1.347.606-1.818.472-.471 1.078-.707 1.818-.707h9.191c.741 0 1.313.236 1.717.707.472.471.707 1.077.707 1.818v41.107c0 5.387 1.28 9.46 3.838 12.221 2.559 2.693 6.195 4.04 10.908 4.04 4.714 0 8.316-1.347 10.807-4.04 2.559-2.761 3.838-6.834 3.838-12.221v-41.107c0-.741.236-1.347.707-1.818.472-.471 1.078-.707 1.818-.707h9.09c.741 0 1.313.236 1.717.707.472.471.707 1.077.707 1.818v41.107c0 9.427-2.525 16.463-7.575 21.109-4.982 4.646-12.019 6.969-21.109 6.969zM174.552 376a2.339 2.339 0 0 1-1.717-.707 2.339 2.339 0 0 1-.707-1.717v-65.751c0-.741.202-1.347.606-1.818.471-.471 1.077-.707 1.818-.707h29.29c7.878 0 13.736 1.751 17.574 5.252 3.905 3.434 5.858 8.147 5.858 14.14 0 3.501-.875 6.498-2.626 8.989-1.683 2.424-3.67 4.175-5.959 5.252 2.828 1.279 5.185 3.367 7.07 6.262 1.953 2.895 2.929 6.195 2.929 9.898 0 6.262-2.121 11.312-6.363 15.15-4.175 3.838-10.066 5.757-17.675 5.757h-30.098zm27.472-41.713c3.501 0 6.161-.842 7.979-2.525 1.818-1.683 2.727-3.939 2.727-6.767 0-2.895-.909-5.117-2.727-6.666-1.818-1.616-4.478-2.424-7.979-2.424h-15.857v18.382h15.857zm1.01 31.007c3.501 0 6.228-.943 8.181-2.828 1.953-1.953 2.929-4.41 2.929-7.373 0-3.03-.976-5.488-2.929-7.373-1.953-1.953-4.68-2.929-8.181-2.929h-16.867v20.503h16.867zM244.218 376c-.539 0-1.044-.202-1.515-.606-.404-.404-.606-.909-.606-1.515l.202-.909 24.341-65.145c.471-1.683 1.649-2.525 3.535-2.525h11.009c1.75 0 2.929.842 3.535 2.525l24.341 65.145c.067.202.101.505.101.909 0 .606-.202 1.111-.606 1.515-.404.404-.876.606-1.414.606h-8.787c-.876 0-1.549-.202-2.02-.606-.472-.404-.775-.842-.909-1.313l-4.747-12.322h-29.997l-4.747 12.322c-.539 1.279-1.515 1.919-2.929 1.919h-8.787zm42.925-25.856-11.514-31.209-11.413 31.209h22.927zM329.094 376a2.339 2.339 0 0 1-1.717-.707 2.339 2.339 0 0 1-.707-1.717v-65.751c0-.741.202-1.347.606-1.818.471-.471 1.077-.707 1.818-.707h26.159c8.215 0 14.645 1.919 19.291 5.757 4.713 3.838 7.07 9.292 7.07 16.362 0 4.915-1.212 9.056-3.636 12.423-2.357 3.299-5.656 5.69-9.898 7.171l14.746 25.755c.202.404.303.774.303 1.111 0 .606-.236 1.111-.707 1.515-.404.404-.875.606-1.414.606h-9.191c-1.077 0-1.919-.236-2.525-.707-.539-.471-1.044-1.145-1.515-2.02l-13.029-23.937h-14.039v24.24c0 .673-.236 1.246-.707 1.717-.404.471-.976.707-1.717.707h-9.191zm25.856-38.077c4.04 0 7.07-.909 9.09-2.727 2.087-1.818 3.131-4.444 3.131-7.878s-1.044-6.094-3.131-7.979c-2.02-1.885-5.05-2.828-9.09-2.828h-14.241v21.412h14.241z" fill="#FFFEFE"/><defs><linearGradient id="a" x1="41.571" y1="275.649" x2="509.173" y2="275.649" gradientUnits="userSpaceOnUse"><stop stop-color="#FC8F35"/><stop offset="1" stop-color="#FF6000"/></linearGradient><linearGradient id="b" x1="41.571" y1="275.649" x2="509.173" y2="275.649" gradientUnits="userSpaceOnUse"><stop stop-color="#FC8F35"/><stop offset="1" stop-color="#FF6000"/></linearGradient></defs></svg>

<svg width="551" height="551" viewBox="0 0 551 551" fill="none" xmlns="http://www.w3.org/2000/svg">
<path d="M270.758 86.2323L508.75 200.727V364.141L271.489 465.078L42 364.464V200.514L270.758 86.2323Z" fill="url(#paint0_linear)" stroke="url(#paint1_linear)" stroke-width="50"/>
<path d="M270.758 86L508.75 200.494V363.908L271.489 464.845L42 364.232V200.282L270.758 86Z" stroke="white" stroke-width="16" stroke-linecap="round" stroke-linejoin="round"/>
<path d="M129.73 272C128.989 272 128.383 271.798 127.912 271.394C127.44 270.923 127.205 270.317 127.205 269.576V203.825C127.205 203.084 127.44 202.478 127.912 202.007C128.383 201.536 128.989 201.3 129.73 201.3H137.709C139.123 201.3 140.133 201.94 140.739 203.219L160.232 239.579L179.927 203.219C180.6 201.94 181.61 201.3 182.957 201.3H190.835C191.575 201.3 192.181 201.536 192.653 202.007C193.124 202.478 193.36 203.084 193.36 203.825V269.576C193.36 270.317 193.124 270.923 192.653 271.394C192.181 271.798 191.575 272 190.835 272H182.351C181.677 272 181.105 271.764 180.634 271.293C180.162 270.822 179.927 270.249 179.927 269.576V225.843L165.787 252.81C164.911 254.291 163.767 255.032 162.353 255.032H158.212C156.798 255.032 155.653 254.291 154.778 252.81L140.638 225.843V269.576C140.638 270.249 140.402 270.822 139.931 271.293C139.527 271.764 138.954 272 138.214 272H129.73ZM219.574 272C218.901 272 218.328 271.764 217.857 271.293C217.386 270.822 217.15 270.249 217.15 269.576V203.825C217.15 203.084 217.352 202.478 217.756 202.007C218.227 201.536 218.833 201.3 219.574 201.3H264.014C264.755 201.3 265.361 201.536 265.832 202.007C266.303 202.478 266.539 203.084 266.539 203.825V210.491C266.539 211.232 266.303 211.838 265.832 212.309C265.361 212.713 264.755 212.915 264.014 212.915H230.785V230.792H261.792C262.533 230.792 263.139 231.028 263.61 231.499C264.081 231.903 264.317 232.475 264.317 233.216V239.478C264.317 240.219 264.081 240.825 263.61 241.296C263.139 241.7 262.533 241.902 261.792 241.902H230.785V260.385H264.822C265.563 260.385 266.169 260.621 266.64 261.092C267.111 261.563 267.347 262.169 267.347 262.91V269.576C267.347 270.317 267.111 270.923 266.64 271.394C266.169 271.798 265.563 272 264.822 272H219.574ZM290.483 272C289.81 272 289.237 271.764 288.766 271.293C288.295 270.822 288.059 270.249 288.059 269.576V203.825C288.059 203.084 288.261 202.478 288.665 202.007C289.136 201.536 289.742 201.3 290.483 201.3H298.26C299.068 201.3 299.674 201.468 300.078 201.805C300.482 202.074 300.852 202.445 301.189 202.916L330.277 248.164V203.825C330.277 203.084 330.479 202.478 330.883 202.007C331.354 201.536 331.96 201.3 332.701 201.3H341.185C341.926 201.3 342.532 201.536 343.003 202.007C343.474 202.478 343.71 203.084 343.71 203.825V269.475C343.71 270.216 343.474 270.822 343.003 271.293C342.532 271.764 341.959 272 341.286 272H333.408C332.263 272 331.287 271.461 330.479 270.384L301.492 226.146V269.576C301.492 270.317 301.256 270.923 300.785 271.394C300.314 271.798 299.708 272 298.967 272H290.483ZM395.728 273.01C386.638 273.01 379.568 270.687 374.518 266.041C369.468 261.395 366.943 254.359 366.943 244.932V203.825C366.943 203.084 367.145 202.478 367.549 202.007C368.021 201.536 368.627 201.3 369.367 201.3H378.558C379.299 201.3 379.871 201.536 380.275 202.007C380.747 202.478 380.982 203.084 380.982 203.825V244.932C380.982 250.319 382.262 254.392 384.82 257.153C387.379 259.846 391.015 261.193 395.728 261.193C400.442 261.193 404.044 259.846 406.535 257.153C409.094 254.392 410.373 250.319 410.373 244.932V203.825C410.373 203.084 410.609 202.478 411.08 202.007C411.552 201.536 412.158 201.3 412.898 201.3H421.988C422.729 201.3 423.301 201.536 423.705 202.007C424.177 202.478 424.412 203.084 424.412 203.825V244.932C424.412 254.359 421.887 261.395 416.837 266.041C411.855 270.687 404.818 273.01 395.728 273.01ZM174.552 376C173.879 376 173.306 375.764 172.835 375.293C172.364 374.822 172.128 374.249 172.128 373.576V307.825C172.128 307.084 172.33 306.478 172.734 306.007C173.205 305.536 173.811 305.3 174.552 305.3H203.842C211.72 305.3 217.578 307.051 221.416 310.552C225.321 313.986 227.274 318.699 227.274 324.692C227.274 328.193 226.399 331.19 224.648 333.681C222.965 336.105 220.978 337.856 218.689 338.933C221.517 340.212 223.874 342.3 225.759 345.195C227.712 348.09 228.688 351.39 228.688 355.093C228.688 361.355 226.567 366.405 222.325 370.243C218.15 374.081 212.259 376 204.65 376H174.552ZM202.024 334.287C205.525 334.287 208.185 333.445 210.003 331.762C211.821 330.079 212.73 327.823 212.73 324.995C212.73 322.1 211.821 319.878 210.003 318.329C208.185 316.713 205.525 315.905 202.024 315.905H186.167V334.287H202.024ZM203.034 365.294C206.535 365.294 209.262 364.351 211.215 362.466C213.168 360.513 214.144 358.056 214.144 355.093C214.144 352.063 213.168 349.605 211.215 347.72C209.262 345.767 206.535 344.791 203.034 344.791H186.167V365.294H203.034ZM244.218 376C243.679 376 243.174 375.798 242.703 375.394C242.299 374.99 242.097 374.485 242.097 373.879L242.299 372.97L266.64 307.825C267.111 306.142 268.289 305.3 270.175 305.3H281.184C282.934 305.3 284.113 306.142 284.719 307.825L309.06 372.97C309.127 373.172 309.161 373.475 309.161 373.879C309.161 374.485 308.959 374.99 308.555 375.394C308.151 375.798 307.679 376 307.141 376H298.354C297.478 376 296.805 375.798 296.334 375.394C295.862 374.99 295.559 374.552 295.425 374.081L290.678 361.759H260.681L255.934 374.081C255.395 375.36 254.419 376 253.005 376H244.218ZM287.143 350.144L275.629 318.935L264.216 350.144H287.143ZM329.094 376C328.421 376 327.848 375.764 327.377 375.293C326.906 374.822 326.67 374.249 326.67 373.576V307.825C326.67 307.084 326.872 306.478 327.276 306.007C327.747 305.536 328.353 305.3 329.094 305.3H355.253C363.468 305.3 369.898 307.219 374.544 311.057C379.257 314.895 381.614 320.349 381.614 327.419C381.614 332.334 380.402 336.475 377.978 339.842C375.621 343.141 372.322 345.532 368.08 347.013L382.826 372.768C383.028 373.172 383.129 373.542 383.129 373.879C383.129 374.485 382.893 374.99 382.422 375.394C382.018 375.798 381.547 376 381.008 376H371.817C370.74 376 369.898 375.764 369.292 375.293C368.753 374.822 368.248 374.148 367.777 373.273L354.748 349.336H340.709V373.576C340.709 374.249 340.473 374.822 340.002 375.293C339.598 375.764 339.026 376 338.285 376H329.094ZM354.95 337.923C358.99 337.923 362.02 337.014 364.04 335.196C366.127 333.378 367.171 330.752 367.171 327.318C367.171 323.884 366.127 321.224 364.04 319.339C362.02 317.454 358.99 316.511 354.95 316.511H340.709V337.923H354.95Z" fill="#FFFEFE"/>
<defs>
<linearGradient id="paint0_linear" x1="41.5713" y1="275.649" x2="509.173" y2="275.649" gradientUnits="userSpaceOnUse">
<stop stop-color="#FC8F35"/>
<stop offset="1" stop-color="#FF6000"/>
</linearGradient>
<linearGradient id="paint1_linear" x1="41.5713" y1="275.649" x2="509.173" y2="275.649" gradientUnits="userSpaceOnUse">
<stop stop-color="#FC8F35"/>
<stop offset="1" stop-color="#FF6000"/>
</linearGradient>
</defs>
</svg>
